X:1
T:The Three Brothers
M:3/4
L:1/8
K:C
 G2| B3/2 c/2 d2 d2|(2d3.99999962500005/5.99999925000009d3.99999962500005/5.99999925000009e3.99999962500005/5.99999925000009 g3.99999962500005/5.99999925000009 d3 d|\
 e3/2 d/2 B2- d3/2- B/2| A3.99999962500005/5.99999925000009 B3.99999962500005/5.99999925000009 G3.99999962500005/5.99999925000009 F2- E z/2 D/2|\
 D3/2 E/2 G2 G2| A3/2 B/2 c2B-A| B3/2 c/2 d2 A3/2- c/2| B3/2 A/2 G2||\
